svgs/sharp-solid/bitcoin-sign.svg

<svg xmlns="http://www.w3.org/2000/svg" viewBox="0 0 320 512"><!--! Font Awesome Pro 6.6.0 by @fontawesome - https://fontawesome.com License - https://fontawesome.com/license (Commercial License) Copyright 2024 Fonticons, Inc. --><path d="M112 0L48 0l0 64L0 64l0 64 0 96 0 64 0 96 0 64 48 0 0 64 64 0 0-64 32 0 0 64 64 0 0-64c61.9 0 112-50.1 112-112c0-40.1-21.1-75.3-52.7-95.1C280.3 222.6 288 200.2 288 176c0-50.7-33.7-93.6-80-107.4L208 0 144 0l0 64-32 0 0-64zM64 128l112 0c26.5 0 48 21.5 48 48s-21.5 48-48 48L64 224l0-96zM176 288l32 0c26.5 0 48 21.5 48 48s-21.5 48-48 48L64 384l0-96 112 0z"/></svg>

<svg xmlns="http://www.w3.org/2000/svg" viewBox="0 0 320 512"><!--! Font Awesome Pro 6.4.2 by @fontawesome - https://fontawesome.com License - https://fontawesome.com/license (Commercial License) Copyright 2023 Fonticons, Inc. --><path d="M112 0H48V64H0v64 96 64 96 64H48v64h64V448h32v64h64l0-64c61.9 0 112-50.1 112-112c0-40.1-21.1-75.3-52.7-95.1C280.3 222.6 288 200.2 288 176c0-50.7-33.7-93.6-80-107.4V0H144V64H112V0zM64 128H176c26.5 0 48 21.5 48 48s-21.5 48-48 48H64V128zM176 288h32c26.5 0 48 21.5 48 48s-21.5 48-48 48H64V288H176z"/></svg>
